X:1
T:Title
L:1/8
Q:1/4=100
M:4/4
K:Db
V:1 treble nm="Grand Piano"
V:1
 F2 FF B2 d2 | c2 B=A cB B2 | B A2 B cBBA | AGGF F4 | F F2 F FE/F/ G2 | G2 GG GF/G/ A2 | %6
w: ????~?????~??? * * * *||||||
 A2 AA AGGF | d c2 =A B4 | F F2 F D>C B,2 | B,2 DE F2 F2 | A2 A=G A2 _G2 | E G2 A F4 | %12
w: ||||||
 B2 dc B2 A2 | A2 cB A2 G2 | G2 BA G2 F2 | D D2 G F4 | B2 dc B2 A2 | A2 cB A2 G2 | G2 BA G2 F2 | %19
w: |||||||
 =A A2 B c4 |] %20
w: |

